X:1
T: Bruce Shawyer's Compliments to Muriel Johnstone
C:Bruce Shawyer
R:Jig
I:speed 180
K:Em
M:6/8
L:1/16
B,2|E2F2G2 B,4B,2|E2F2G2 E2F2G2|A2G2F2 D4D2|A4A2 D2E2F2|E2F2G2 B,4B,2|E2F2G2 E2F2G2|B2A2G2 F2G2^D2|E6 E4B,2|
E2F2G2 B,4B,2|E2F2G2 E2F2G2|A2G2F2 D4D2|A4A2 D2E2F2|E2F2G2 B,4B,2|E2F2G2 E2F2G2|B2A2G2 F2G2^D2|E6 E6|
G2F2E2 E2F2G2|F2E2D2 D2E2F2|E2D2C2 C2D2E2|^D4D2 B,6|G2F2E2 E2F2G2|A2G2F2 F2G2A2|B2A2G2 F2G2^D2|E6 E6|
G2F2E2 E2F2G2|F2E2D2 D2E2F2|E2D2C2 C2D2E2|^D4D2 B,6|G2F2E2 E2F2G2|A2G2F2 F2G2A2|B2A2G2 F2G2^D2|E6 E4||
